; G-Code generated by Simplify3D(R) Version 4.1.2
; Apr 5, 2020 at 7:58:31 PM
; Settings Summary
;   processName,Process2
;   applyToModels,covid19_headband_rc3-chn,bottom_reinforcement (1)
;   profileName,pla new (modified)
;   profileVersion,2020-04-04 13:53:57
;   baseProfile,Default (modified)
;   printMaterial,PLA
;   printQuality,Medium
;   printExtruders,
;   extruderName,Primary Extruder
;   extruderToolheadNumber,0
;   extruderDiameter,0.4
;   extruderAutoWidth,0
;   extruderWidth,0.5
;   extrusionMultiplier,0.9
;   extruderUseRetract,1
;   extruderRetractionDistance,1
;   extruderExtraRestartDistance,0
;   extruderRetractionZLift,0
;   extruderRetractionSpeed,1800
;   extruderUseCoasting,0
;   extruderCoastingDistance,0.2
;   extruderUseWipe,0
;   extruderWipeDistance,5
;   primaryExtruder,0
;   layerHeight,0.25
;   topSolidLayers,3
;   bottomSolidLayers,3
;   perimeterOutlines,2
;   printPerimetersInsideOut,1
;   startPointOption,2
;   startPointOriginX,0
;   startPointOriginY,0
;   sequentialIslands,0
;   spiralVaseMode,0
;   firstLayerHeightPercentage,100
;   firstLayerWidthPercentage,100
;   firstLayerUnderspeed,0.4
;   useRaft,0
;   raftExtruder,0
;   raftTopLayers,3
;   raftBaseLayers,2
;   raftOffset,3
;   raftSeparationDistance,0.14
;   raftTopInfill,100
;   aboveRaftSpeedMultiplier,0.3
;   useSkirt,1
;   skirtExtruder,0
;   skirtLayers,1
;   skirtOutlines,1
;   skirtOffset,2.5
;   usePrimePillar,0
;   primePillarExtruder,999
;   primePillarWidth,12
;   primePillarLocation,7
;   primePillarSpeedMultiplier,1
;   useOozeShield,0
;   oozeShieldExtruder,999
;   oozeShieldOffset,2
;   oozeShieldOutlines,1
;   oozeShieldSidewallShape,1
;   oozeShieldSidewallAngle,30
;   oozeShieldSpeedMultiplier,1
;   infillExtruder,0
;   internalInfillPattern,Rectilinear
;   externalInfillPattern,Rectilinear
;   infillPercentage,20
;   outlineOverlapPercentage,20
;   infillExtrusionWidthPercentage,90
;   minInfillLength,5
;   infillLayerInterval,1
;   internalInfillAngles,45,-45
;   overlapInternalInfillAngles,0
;   externalInfillAngles,45,-45
;   generateSupport,0
;   supportExtruder,0
;   supportInfillPercentage,30
;   supportExtraInflation,0
;   supportBaseLayers,0
;   denseSupportExtruder,0
;   denseSupportLayers,0
;   denseSupportInfillPercentage,70
;   supportLayerInterval,1
;   supportHorizontalPartOffset,0.3
;   supportUpperSeparationLayers,1
;   supportLowerSeparationLayers,1
;   supportType,0
;   supportGridSpacing,4
;   maxOverhangAngle,45
;   supportAngles,0
;   temperatureName,Primary Extruder,bed
;   temperatureNumber,0,0
;   temperatureSetpointCount,1,1
;   temperatureSetpointLayers,1,1
;   temperatureSetpointTemperatures,239,80
;   temperatureStabilizeAtStartup,1,1
;   temperatureHeatedBed,0,1
;   fanLayers,1,10,15,20
;   fanSpeeds,0,12,18,25
;   blipFanToFullPower,0
;   adjustSpeedForCooling,1
;   minSpeedLayerTime,15
;   minCoolingSpeedSlowdown,20
;   increaseFanForCooling,0
;   minFanLayerTime,45
;   maxCoolingFanSpeed,100
;   increaseFanForBridging,0
;   bridgingFanSpeed,100
;   use5D,1
;   relativeEdistances,0
;   allowEaxisZeroing,1
;   independentExtruderAxes,0
;   includeM10123,0
;   stickySupport,1
;   applyToolheadOffsets,0
;   gcodeXoffset,0
;   gcodeYoffset,0
;   gcodeZoffset,0
;   overrideMachineDefinition,0
;   machineTypeOverride,0
;   strokeXoverride,200
;   strokeYoverride,200
;   strokeZoverride,200
;   originOffsetXoverride,0
;   originOffsetYoverride,0
;   originOffsetZoverride,0
;   homeXdirOverride,-1
;   homeYdirOverride,-1
;   homeZdirOverride,-1
;   flipXoverride,1
;   flipYoverride,-1
;   flipZoverride,1
;   toolheadOffsets,0,0|0,0|0,0|0,0|0,0|0,0
;   overrideFirmwareConfiguration,0
;   firmwareTypeOverride,RepRap (Marlin/Repetier/Sprinter)
;   GPXconfigOverride,r2
;   baudRateOverride,115200
;   overridePrinterModels,0
;   printerModelsOverride
;   startingGcode,G28 ; home all axes
;   layerChangeGcode,
;   retractionGcode,
;   toolChangeGcode,
;   endingGcode,G28 X ; Home the X axis,M104 S0 ; turn off extruder,M140 S0 ; turn off bed,M84 ; disable motors,
;   exportFileFormat,gcode
;   celebration,0
;   celebrationSong,Random Song
;   postProcessing,
;   defaultSpeed,3900
;   outlineUnderspeed,0.5
;   solidInfillUnderspeed,1.05
;   supportUnderspeed,0.8
;   rapidXYspeed,4800
;   rapidZspeed,1200
;   minBridgingArea,50
;   bridgingExtraInflation,0
;   bridgingExtrusionMultiplier,1
;   bridgingSpeedMultiplier,1
;   useFixedBridgingAngle,0
;   fixedBridgingAngle,0
;   applyBridgingToPerimeters,0
;   filamentDiameters,1.75|1.75|1.75|1.75|1.75|1.75
;   filamentPricesPerKg,46|46|46|46|46|46
;   filamentDensities,1.25|1.25|1.25|1.25|1.25|1.25
;   useMinPrintHeight,0
;   minPrintHeight,0
;   useMaxPrintHeight,0
;   maxPrintHeight,0
;   useDiaphragm,0
;   diaphragmLayerInterval,20
;   robustSlicing,1
;   mergeAllIntoSolid,0
;   onlyRetractWhenCrossingOutline,1
;   retractBetweenLayers,1
;   useRetractionMinTravel,0
;   retractionMinTravel,3
;   retractWhileWiping,0
;   onlyWipeOutlines,1
;   avoidCrossingOutline,0
;   maxMovementDetourFactor,3
;   toolChangeRetractionDistance,12
;   toolChangeExtraRestartDistance,-0.5
;   toolChangeRetractionSpeed,600
;   externalThinWallType,1
;   internalThinWallType,2
;   thinWallAllowedOverlapPercentage,20
;   singleExtrusionMinLength,1
;   singleExtrusionMinPrintingWidthPercentage,50
;   singleExtrusionMaxPrintingWidthPercentage,200
;   singleExtrusionEndpointExtension,0.2
;   horizontalSizeCompensation,0
G90
M82
M106 S0
M140 S80
M190 S80
M104 S239 T0
M109 S239 T0
G28 ; home all axes
; process Process2
; layer 1, Z = 0.250
T0
G92 E0.0000
G1 E-1.0000 F1800
; feature skirt
; tool H0.250 W0.500
G1 Z0.250 F1200
G1 X26.596 Y67.475 F4800
G1 E0.0000 F1800
G92 E0.0000
G1 X26.805 Y67.360 E0.0112 F1560
G1 X27.414 Y67.090 E0.0423
G1 X27.629 Y67.016 E0.0529
G1 X28.226 Y66.862 E0.0818
G1 X28.450 Y66.824 E0.0924
G1 X29.055 Y66.771 E0.1208
G1 X29.174 Y66.766 E0.1264
G1 X43.991 Y66.772 E0.8194
G1 X44.157 Y66.783 E0.8272
G1 X44.605 Y66.837 E0.8483
G1 X44.815 Y66.880 E0.8583
G1 X45.562 Y67.093 E0.8947
G1 X45.839 Y67.205 E0.9086
G1 X46.571 Y67.600 E0.9475
G1 X46.770 Y67.731 E0.9587
G1 X47.191 Y68.064 E0.9838
G1 X47.357 Y68.218 E0.9944
G1 X47.883 Y68.797 E1.0310
G1 X48.059 Y69.039 E1.0449
G1 X48.488 Y69.786 E1.0852
G1 X48.607 Y70.060 E1.0992
G1 X48.850 Y70.835 E1.1372
G1 X48.907 Y71.116 E1.1506
G1 X48.984 Y71.919 E1.1883
G1 X48.982 Y72.205 E1.2017
G1 X48.890 Y73.013 E1.2397
G1 X48.825 Y73.304 E1.2537
G1 X48.544 Y74.124 E1.2943
G1 X48.411 Y74.405 E1.3088
G1 X48.186 Y74.766 E1.3287
G1 X79.493 Y74.766 E2.7929
G1 X79.512 Y74.766 E2.7939
G1 X82.020 Y74.802 E2.9112
G1 X82.066 Y74.803 E2.9133
G1 X85.405 Y74.961 E3.0697
G1 X85.444 Y74.963 E3.0715
G1 X87.125 Y75.090 E3.1504
G1 X87.158 Y75.093 E3.1519
G1 X89.660 Y75.342 E3.2695
G1 X89.705 Y75.347 E3.2716
G1 X93.023 Y75.788 E3.4281
G1 X93.067 Y75.794 E3.4303
G1 X95.548 Y76.208 E3.5479
G1 X95.580 Y76.213 E3.5494
G1 X97.233 Y76.529 E3.6281
G1 X97.265 Y76.535 E3.6296
G1 X99.717 Y77.064 E3.7469
G1 X99.748 Y77.071 E3.7485
G1 X101.385 Y77.464 E3.8272
G1 X101.416 Y77.472 E3.8287
G1 X103.844 Y78.116 E3.9462
G1 X103.881 Y78.127 E3.9480
G1 X106.293 Y78.840 E4.0656
G1 X106.330 Y78.852 E4.0674
G1 X106.436 Y78.887 E4.0727
G1 X105.344 Y78.379 E4.1290
G1 X102.242 Y77.071 E4.2865
G1 X98.802 Y75.758 E4.4587
G1 X98.558 Y75.636 E4.4714
G1 X98.069 Y75.327 E4.4985
G1 X97.818 Y75.124 E4.5136
G1 X97.381 Y74.677 E4.5429
G1 X97.184 Y74.421 E4.5579
G1 X96.874 Y73.903 E4.5862
G1 X96.741 Y73.609 E4.6013
G1 X96.552 Y73.006 E4.6308
G1 X96.491 Y72.677 E4.6465
G1 X96.451 Y72.041 E4.6763
G1 X96.471 Y71.707 E4.6919
G1 X96.586 Y71.080 E4.7217
G1 X96.685 Y70.761 E4.7374
G1 X96.948 Y70.180 E4.7672
G1 X97.121 Y69.894 E4.7829
G1 X97.515 Y69.393 E4.8127
G1 X97.753 Y69.157 E4.8283
G1 X98.256 Y68.766 E4.8581
G1 X98.543 Y68.594 E4.8738
G1 X99.126 Y68.335 E4.9036
G1 X99.446 Y68.237 E4.9193
G1 X100.079 Y68.125 E4.9494
G1 X100.426 Y68.108 E4.9656
G1 X101.108 Y68.161 E4.9976
G1 X101.473 Y68.240 E5.0150
G1 X103.511 Y68.978 E5.1164
G1 X103.548 Y68.993 E5.1183
G1 X106.078 Y69.995 E5.2456
G1 X106.112 Y70.009 E5.2473
G1 X107.126 Y70.442 E5.2989
G1 X107.136 Y70.405 E5.3007
G1 X107.193 Y70.235 E5.3091
G1 X107.377 Y69.789 E5.3316
G1 X107.455 Y69.628 E5.3400
G1 X107.726 Y69.156 E5.3654
G1 X107.847 Y68.978 E5.3755
G1 X108.260 Y68.463 E5.4064
G1 X108.425 Y68.291 E5.4175
G1 X108.930 Y67.847 E5.4490
G1 X109.122 Y67.705 E5.4602
G1 X109.696 Y67.355 E5.4916
G1 X109.910 Y67.249 E5.5028
G1 X110.536 Y67.004 E5.5342
G1 X110.765 Y66.936 E5.5454
G1 X111.424 Y66.802 E5.5768
G1 X111.661 Y66.775 E5.5880
G1 X112.332 Y66.757 E5.6194
G1 X112.571 Y66.772 E5.6306
G1 X113.236 Y66.870 E5.6620
G1 X113.468 Y66.925 E5.6732
G1 X114.089 Y67.131 E5.7038
G1 X114.277 Y67.209 E5.7133
G1 X114.750 Y67.448 E5.7381
G1 X114.963 Y67.581 E5.7498
G1 X115.668 Y68.118 E5.7913
G1 X115.893 Y68.333 E5.8058
G1 X116.398 Y68.938 E5.8427
G1 X116.528 Y69.124 E5.8533
G1 X116.803 Y69.592 E5.8787
G1 X116.909 Y69.819 E5.8904
G1 X117.207 Y70.641 E5.9313
G1 X117.277 Y70.919 E5.9447
G1 X117.365 Y71.549 E5.9745
G1 X117.377 Y71.668 E5.9801
G1 X117.584 Y75.598 E6.1642
G1 X118.436 Y76.077 E6.2098
G1 X118.466 Y76.095 E6.2115
G1 X120.801 Y77.488 E6.3386
G1 X120.832 Y77.507 E6.3404
G1 X123.129 Y78.963 E6.4676
G1 X123.160 Y78.983 E6.4693
G1 X125.417 Y80.500 E6.5965
G1 X125.447 Y80.521 E6.5982
G1 X127.663 Y82.097 E6.7254
G1 X127.692 Y82.119 E6.7271
G1 X129.865 Y83.755 E6.8543
G1 X129.894 Y83.777 E6.8560
G1 X132.022 Y85.471 E6.9832
G1 X132.050 Y85.494 E6.9849
G1 X134.132 Y87.244 E7.1121
G1 X134.160 Y87.268 E7.1138
G1 X136.194 Y89.073 E7.2410
G1 X136.221 Y89.098 E7.2428
G1 X138.206 Y90.956 E7.3699
G1 X138.232 Y90.982 E7.3717
G1 X140.164 Y92.891 E7.4987
G1 X140.186 Y92.913 E7.5001
G1 X141.451 Y94.220 E7.5852
G1 X141.472 Y94.243 E7.5867
G1 X143.317 Y96.236 E7.7137
G1 X143.342 Y96.264 E7.7154
G1 X145.134 Y98.308 E7.8426
G1 X145.158 Y98.336 E7.8443
G1 X146.895 Y100.428 E7.9715
G1 X146.919 Y100.457 E7.9733
G1 X148.601 Y102.597 E8.1006
G1 X148.627 Y102.632 E8.1026
G1 X150.773 Y105.546 E8.2719
G1 X150.798 Y105.581 E8.2739
G1 X152.342 Y107.820 E8.4011
G1 X152.359 Y107.845 E8.4025
G1 X153.359 Y109.368 E8.4878
G1 X153.379 Y109.399 E8.4895
G1 X155.283 Y112.474 E8.6586
G1 X155.305 Y112.511 E8.6606
G1 X156.663 Y114.867 E8.7878
G1 X156.679 Y114.894 E8.7893
G1 X157.553 Y116.492 E8.8745
G1 X157.571 Y116.525 E8.8762
G1 X159.221 Y119.743 E9.0454
G1 X159.240 Y119.781 E9.0474
G1 X160.405 Y122.238 E9.1746
G1 X160.417 Y122.266 E9.1760
G1 X161.158 Y123.924 E9.2609
G1 X161.168 Y123.947 E9.2621
G1 X161.879 Y125.618 E9.3470
G1 X161.891 Y125.646 E9.3485
G1 X162.897 Y128.166 E9.4754
G1 X162.909 Y128.194 E9.4768
G1 X163.545 Y129.897 E9.5618
G1 X163.554 Y129.923 E9.5631
G1 X163.657 Y130.214 E9.5775
G1 X167.814 Y130.214 E9.7720
G1 X167.933 Y130.220 E9.7776
G1 X168.567 Y130.275 E9.8073
G1 X168.849 Y130.329 E9.8207
G1 X169.726 Y130.596 E9.8636
G1 X170.032 Y130.731 E9.8793
G1 X170.839 Y131.213 E9.9233
G1 X171.104 Y131.418 E9.9389
G1 X171.772 Y132.080 E9.9829
G1 X171.979 Y132.343 E9.9985
G1 X172.459 Y133.131 E10.0417
G1 X172.585 Y133.401 E10.0557
G1 X172.830 Y134.118 E10.0911
G1 X172.891 Y134.373 E10.1034
G1 X172.994 Y135.105 E10.1379
G1 X173.005 Y135.368 E10.1502
G1 X172.967 Y136.106 E10.1848
G1 X172.928 Y136.366 E10.1971
G1 X172.750 Y137.084 E10.2317
G1 X172.663 Y137.331 E10.2440
G1 X172.352 Y138.002 E10.2785
G1 X172.219 Y138.229 E10.2908
G1 X171.787 Y138.829 E10.3254
G1 X171.614 Y139.026 E10.3377
G1 X171.080 Y139.529 E10.3720
G1 X170.882 Y139.683 E10.3837
G1 X170.297 Y140.060 E10.4163
G1 X170.053 Y140.186 E10.4291
G1 X169.262 Y140.495 E10.4689
G1 X168.973 Y140.573 E10.4828
G1 X168.207 Y140.694 E10.5191
G1 X167.994 Y140.711 E10.5291
G1 X166.813 Y140.712 E10.5844
G1 X167.563 Y144.010 E10.7425
G1 X167.573 Y144.058 E10.7448
G1 X168.250 Y147.620 E10.9144
G1 X168.258 Y147.668 E10.9167
G1 X168.807 Y151.252 E11.0863
G1 X168.813 Y151.301 E11.0886
G1 X169.234 Y154.902 E11.2582
G1 X169.239 Y154.951 E11.2605
G1 X169.530 Y158.562 E11.4299
G1 X169.533 Y158.605 E11.4319
G1 X169.667 Y161.327 E11.5594
G1 X169.668 Y161.370 E11.5614
G1 X169.733 Y164.989 E11.7307
G1 X169.733 Y165.032 E11.7327
G1 X169.696 Y167.757 E11.8602
G1 X169.695 Y167.800 E11.8622
G1 X169.533 Y171.419 E12.0316
G1 X169.530 Y171.468 E12.0339
G1 X169.239 Y175.082 E12.2035
G1 X169.234 Y175.131 E12.2058
G1 X168.813 Y178.732 E12.3754
G1 X168.807 Y178.781 E12.3777
G1 X168.258 Y182.364 E12.5473
G1 X168.250 Y182.413 E12.5496
G1 X167.573 Y185.975 E12.7192
G1 X167.563 Y186.023 E12.7215
G1 X166.813 Y189.321 E12.8796
G1 X167.993 Y189.322 E12.9349
G1 X168.207 Y189.339 E12.9449
G1 X168.973 Y189.459 E12.9812
G1 X169.262 Y189.537 E12.9951
G1 X170.058 Y189.849 E13.0351
G1 X170.313 Y189.981 E13.0485
G1 X170.941 Y190.394 E13.0837
G1 X171.145 Y190.558 E13.0960
G1 X171.675 Y191.074 E13.1306
G1 X171.845 Y191.275 E13.1428
G1 X172.267 Y191.882 E13.1774
G1 X172.395 Y192.111 E13.1897
G1 X172.695 Y192.787 E13.2243
G1 X172.778 Y193.036 E13.2366
G1 X172.942 Y193.751 E13.2709
G1 X172.975 Y193.999 E13.2826
G1 X173.005 Y194.683 E13.3146
G1 X172.993 Y194.933 E13.3263
G1 X172.891 Y195.659 E13.3606
G1 X172.830 Y195.915 E13.3729
G1 X172.585 Y196.631 E13.4083
G1 X172.459 Y196.902 E13.4223
G1 X171.979 Y197.690 E13.4654
G1 X171.772 Y197.953 E13.4811
G1 X171.104 Y198.615 E13.5251
G1 X170.839 Y198.820 E13.5407
G1 X170.032 Y199.302 E13.5847
G1 X169.726 Y199.437 E13.6004
G1 X168.849 Y199.704 E13.6432
G1 X168.567 Y199.758 E13.6566
G1 X167.933 Y199.813 E13.6864
G1 X167.814 Y199.818 E13.6920
G1 X163.657 Y199.818 E13.8865
G1 X163.554 Y200.110 E13.9009
G1 X163.545 Y200.136 E13.9022
G1 X162.909 Y201.838 E13.9872
G1 X162.897 Y201.867 E13.9886
G1 X161.891 Y204.387 E14.1155
G1 X161.879 Y204.415 E14.1170
G1 X161.167 Y206.089 E14.2021
G1 X161.155 Y206.117 E14.2035
G1 X160.037 Y208.589 E14.3304
G1 X160.024 Y208.617 E14.3318
G1 X159.236 Y210.260 E14.4171
G1 X159.220 Y210.293 E14.4188
G1 X157.568 Y213.514 E14.5881
G1 X157.544 Y213.557 E14.5904
G1 X155.777 Y216.719 E14.7598
G1 X155.755 Y216.756 E14.7618
G1 X154.355 Y219.087 E14.8890
G1 X154.339 Y219.113 E14.8904
G1 X153.369 Y220.649 E14.9754
G1 X153.356 Y220.669 E14.9765
G1 X152.359 Y222.187 E15.0615
G1 X152.342 Y222.213 E15.0629
G1 X150.798 Y224.452 E15.1901
G1 X150.773 Y224.487 E15.1921
G1 X148.627 Y227.401 E15.3614
G1 X148.601 Y227.435 E15.3634
G1 X146.920 Y229.573 E15.4906
G1 X146.901 Y229.597 E15.4920
G1 X145.745 Y231.002 E15.5771
G1 X145.726 Y231.025 E15.5786
G1 X143.953 Y233.084 E15.7056
G1 X143.929 Y233.111 E15.7073
G1 X142.100 Y235.124 E15.8345
G1 X142.075 Y235.150 E15.8362
G1 X140.192 Y237.113 E15.9634
G1 X140.167 Y237.139 E15.9651
G1 X138.232 Y239.051 E16.0923
G1 X138.206 Y239.076 E16.0941
G1 X136.221 Y240.935 E16.2212
G1 X136.194 Y240.960 E16.2230
G1 X134.160 Y242.765 E16.3502
G1 X134.132 Y242.789 E16.3519
G1 X132.050 Y244.539 E16.4791
G1 X132.022 Y244.562 E16.4808
G1 X129.894 Y246.255 E16.6080
G1 X129.865 Y246.278 E16.6097
G1 X127.692 Y247.913 E16.7369
G1 X127.663 Y247.935 E16.7386
G1 X125.447 Y249.512 E16.8658
G1 X125.417 Y249.533 E16.8675
G1 X123.160 Y251.050 E16.9947
G1 X123.129 Y251.070 E16.9964
G1 X120.832 Y252.525 E17.1236
G1 X120.801 Y252.545 E17.1253
G1 X118.466 Y253.938 E17.2525
G1 X118.436 Y253.956 E17.2542
G1 X117.584 Y254.434 E17.2998
G1 X117.377 Y258.364 E17.4839
G1 X117.365 Y258.483 E17.4895
G1 X117.277 Y259.107 E17.5190
G1 X117.212 Y259.374 E17.5318
G1 X116.928 Y260.181 E17.5718
G1 X116.792 Y260.460 E17.5864
G1 X116.324 Y261.198 E17.6272
